svg/book_minus_multiple_outline.svg

<svg xmlns="http://www.w3.org/2000/svg" viewBox="0 0 24 24"><path d="M13.09 20H5V6H3v14a2 2 0 0 0 2 2h8.81a5.5 5.5 0 0 1-.72-2M19 2H9c-1.1 0-2 .9-2 2v12a2 2 0 0 0 2 2h4.09c.11-.71.35-1.39.72-2H9V4h2v6l2.5-2.25L16 10V4h3v9c.68 0 1.36.11 2 .34V4a2 2 0 0 0-2-2m4 16v2h-8v-2z"/></svg>

<?xml version="1.0" encoding="UTF-8"?><!DOCTYPE svg PUBLIC "-//W3C//DTD SVG 1.1//EN" "http://www.w3.org/Graphics/SVG/1.1/DTD/svg11.dtd"><svg xmlns="http://www.w3.org/2000/svg" xmlns:xlink="http://www.w3.org/1999/xlink" version="1.1" id="mdi-book-minus-multiple-outline" width="24" height="24" viewBox="0 0 24 24"><path d="M13.09 20H5V6H3V20C3 21.11 3.9 22 5 22H13.81C13.44 21.39 13.2 20.71 13.09 20M19 2H9C7.9 2 7 2.9 7 4V16C7 17.11 7.9 18 9 18H13.09C13.2 17.29 13.44 16.61 13.81 16H9V4H11V10L13.5 7.75L16 10V4H19V13C19.68 13 20.36 13.11 21 13.34V4C21 2.9 20.11 2 19 2M23 18V20H15V18H23Z" /></svg>
